__todo__/opentelemetry-icon.svg

<svg height="256" preserveAspectRatio="xMidYMid" viewBox="0 0 256 256" width="256" xmlns="http://www.w3.org/2000/svg"><path d="m135.440226 139.917846c-10.906369 10.905218-10.906369 28.58725 0 39.492469s28.590268 10.905219 39.496637 0 10.906369-28.587251 0-39.492469c-10.906369-10.905219-28.590268-10.905219-39.496637 0zm29.5251 29.547948c-5.40125 5.40068-14.152313 5.40068-19.553562 0-5.40125-5.400679-5.40125-14.150819 0-19.551498 5.401249-5.40068 14.152312-5.40068 19.553562 0 5.401249 5.374715 5.401249 14.150819 0 19.551498zm9.504121-166.95369906-17.112612 17.11080686c-3.349814 3.3494599-3.349814 8.8539987 0 12.2034586l66.814495 66.8074447c3.349813 3.3494599 8.854933 3.3494599 12.204746 0l17.112613-17.1108069c3.349813-3.34946 3.349813-8.8539987 0-12.2034586l-66.840463-66.80744466c-3.349813-3.34945992-8.828965-3.34945992-12.178779 0zm-119.892158 218.64962806c3.0382029-3.037883 3.0382029-7.997161 0-11.035043l-8.6991277-8.69821c-3.0382029-3.037882-7.9980041-3.037882-11.0362069 0l-17.9695416 17.967646-.0259676.025964-4.9338336-4.933312c-2.72659233-2.726306-7.16704263-2.726306-9.86766738 0-2.72659229 2.726304-2.72659229 7.166285 0 9.866625l29.60300198 29.599879c2.7265923 2.726304 7.1670426 2.726304 9.8676674 0 2.7006247-2.726305 2.7265923-7.166287 0-9.866626l-4.9338337-4.933313.0259676-.025966z" fill="#f5a800"/><path d="m145.100153 51.637507-38.016487 38.0124753c-3.375781 3.3754247-3.375781 8.9318931 0 12.3073177l23.474662 23.472184c16.593261-11.94381 39.860182-10.463816 54.791521 4.465947l19.008243-19.006237c3.375781-3.375425 3.375781-8.931894 0-12.3073186l-46.949322-46.9443684c-3.375781-3.4013895-8.932836-3.4013895-12.308617 0zm-24.409493 83.684568-13.866669-13.865205c-3.245943-3.245602-8.5692902-3.245602-11.8152334 0l-48.8968884 48.917693c-3.2459432 3.245601-3.2459432 8.568386 0 11.813986l27.7073712 27.704448c3.2459432 3.2456 8.56929 3.2456 11.8152332 0l31.4466974-31.49531c-6.647691-13.735381-5.453184-30.326892 3.609489-43.075612z" fill="#425cc7"/></svg>

<?xml version="1.0" encoding="UTF-8"?>
<svg width="256px" height="256px" viewBox="0 0 256 256" version="1.1" xmlns="http://www.w3.org/2000/svg" xmlns:xlink="http://www.w3.org/1999/xlink" preserveAspectRatio="xMidYMid">
    <title>OpenTelemetry</title>
    <g>
        <path d="M135.440226,139.917846 C124.533857,150.823064 124.533857,168.505096 135.440226,179.410315 C146.346595,190.315534 164.030494,190.315534 174.936863,179.410315 C185.843232,168.505096 185.843232,150.823064 174.936863,139.917846 C164.030494,129.012627 146.346595,129.012627 135.440226,139.917846 Z M164.965326,169.465794 C159.564076,174.866474 150.813013,174.866474 145.411764,169.465794 C140.010514,164.065115 140.010514,155.314975 145.411764,149.914296 C150.813013,144.513616 159.564076,144.513616 164.965326,149.914296 C170.366575,155.289011 170.366575,164.065115 164.965326,169.465794 Z M174.469447,2.51209494 L157.356835,19.6229018 C154.007021,22.9723617 154.007021,28.4769005 157.356835,31.8263604 L224.17133,98.6338051 C227.521143,101.983265 233.026263,101.983265 236.376076,98.6338051 L253.488689,81.5229982 C256.838502,78.1735382 256.838502,72.6689995 253.488689,69.3195396 L186.648226,2.51209494 C183.298413,-0.837364979 177.819261,-0.837364979 174.469447,2.51209494 L174.469447,2.51209494 Z M54.577289,221.161723 C57.6154919,218.12384 57.6154919,213.164562 54.577289,210.12668 L45.8781613,201.42847 C42.8399584,198.390588 37.8801572,198.390588 34.8419544,201.42847 L16.8724128,219.396116 L16.8464452,219.42208 L11.9126116,214.488768 C9.18601927,211.762462 4.74556897,211.762462 2.04494422,214.488768 C-0.681648073,217.215072 -0.681648073,221.655053 2.04494422,224.355393 L31.6479462,253.955272 C34.3745385,256.681576 38.8149888,256.681576 41.5156136,253.955272 C44.2162383,251.228967 44.2422059,246.788985 41.5156136,244.088646 L36.5817799,239.155333 L36.6077475,239.129367 L54.577289,221.161723 Z" fill="#F5A800"></path>
        <path d="M145.100153,51.637507 L107.083666,89.6499823 C103.707885,93.025407 103.707885,98.5818754 107.083666,101.9573 L130.558328,125.429484 C147.151589,113.485674 170.41851,114.965668 185.349849,129.895431 L204.358092,110.889194 C207.733873,107.513769 207.733873,101.9573 204.358092,98.5818754 L157.40877,51.637507 C154.032989,48.2361175 148.475934,48.2361175 145.100153,51.637507 Z M120.69066,135.322075 L106.823991,121.45687 C103.578048,118.211268 98.2547008,118.211268 95.0087576,121.45687 L46.1118692,170.374563 C42.865926,173.620164 42.865926,178.942949 46.1118692,182.188549 L73.8192404,209.892997 C77.0651836,213.138597 82.3885304,213.138597 85.6344736,209.892997 L117.081171,178.397687 C110.43348,164.662306 111.627987,148.070795 120.69066,135.322075 Z" fill="#425CC7"></path>
    </g>
</svg>
